devices/16/input-mouse.svg

<?xml version="1.0" encoding="UTF-8" standalone="no"?>
<svg
   xmlns:dc="http://purl.org/dc/elements/1.1/"
   xmlns:cc="http://creativecommons.org/ns#"
   xmlns:rdf="http://www.w3.org/1999/02/22-rdf-syntax-ns#"
   xmlns:svg="http://www.w3.org/2000/svg"
   xmlns="http://www.w3.org/2000/svg"
   xmlns:xlink="http://www.w3.org/1999/xlink"
   version="1.1"
   width="16"
   height="16"
   id="svg3694">
  <metadata
     id="metadata32">
    <rdf:RDF>
      <cc:Work
         rdf:about="">
        <dc:format>image/svg+xml</dc:format>
        <dc:type
           rdf:resource="http://purl.org/dc/dcmitype/StillImage" />
        <dc:title />
      </cc:Work>
    </rdf:RDF>
  </metadata>
  <defs
     id="defs3696">
    <linearGradient
       id="linearGradient3208">
      <stop
         id="stop3210"
         style="stop-color:#ffffff;stop-opacity:1"
         offset="0" />
      <stop
         id="stop3212"
         style="stop-color:#ffffff;stop-opacity:0"
         offset="1" />
    </linearGradient>
    <linearGradient
       id="linearGradient3775">
      <stop
         id="stop3777"
         style="stop-color:#ffffff;stop-opacity:1"
         offset="0" />
      <stop
         id="stop3779"
         style="stop-color:#ffffff;stop-opacity:0"
         offset="1" />
    </linearGradient>
    <linearGradient
       id="linearGradient3600-8">
      <stop
         id="stop3602-2"
         style="stop-color:#f4f4f4;stop-opacity:1"
         offset="0" />
      <stop
         id="stop3604-5"
         style="stop-color:#dbdbdb;stop-opacity:1"
         offset="1" />
    </linearGradient>
    <linearGradient
       id="linearGradient3104-5">
      <stop
         id="stop3106-2"
         style="stop-color:#aaaaaa;stop-opacity:1"
         offset="0" />
      <stop
         id="stop3108-2"
         style="stop-color:#c8c8c8;stop-opacity:1"
         offset="1" />
    </linearGradient>
    <linearGradient
       x1="14"
       y1="2"
       x2="32"
       y2="40"
       id="linearGradient2841"
       xlink:href="#linearGradient3208"
       gradientUnits="userSpaceOnUse"
       gradientTransform="matrix(0.81494236,0,0,0.38737582,-10.008247,-1.5522154)" />
    <linearGradient
       x1="24.117819"
       y1="33.657772"
       x2="-32.011677"
       y2="33.657784"
       id="linearGradient2845"
       xlink:href="#linearGradient3775"
       gradientUnits="userSpaceOnUse"
       gradientTransform="matrix(5.4681973e-8,-0.23725628,0.25777328,1.1743586e-7,-0.6760755,7.0635602)" />
    <linearGradient
       x1="18.601307"
       y1="0.85446119"
       x2="18.601307"
       y2="49.956139"
       id="linearGradient2848"
       xlink:href="#linearGradient3600-8"
       gradientUnits="userSpaceOnUse"
       gradientTransform="matrix(0.39270105,0,0,0.31287267,5.3918039,0.04958457)" />
    <linearGradient
       x1="-74.784531"
       y1="54.702854"
       x2="-74.784531"
       y2="2.103905"
       id="linearGradient2850"
       xlink:href="#linearGradient3104-5"
       gradientUnits="userSpaceOnUse"
       gradientTransform="matrix(0.31710483,0,0,0.29280221,28.722287,-0.29910633)" />
  </defs>
  <path
     d="M 7.9843638,0.49997357 C 6.8345762,0.51920767 5.5919505,0.60942047 4.6463942,1.2538279 3.6626917,2.2525512 3.7783766,3.6477523 3.6277993,4.8810663 3.4130449,7.7733943 3.4351987,10.706739 3.9562309,13.576327 c 0.1782697,0.732877 0.7972636,1.46809 1.6350966,1.607411 1.6398036,0.428508 3.4516468,0.436992 5.0689515,-0.06904 0.762163,-0.261673 1.25744,-0.904165 1.393272,-1.602974 0.248816,-0.998252 0.278655,-2.026154 0.373362,-3.037461 C 12.56496,7.8271693 12.539137,5.1558563 12.071066,2.5341264 11.922151,1.7645558 11.329257,1.0481573 10.480832,0.82341137 9.6839833,0.56095347 8.8246203,0.52591477 7.9843638,0.49997357 z"
     id="path4487"
     style="color:#000000;fill:url(#linearGradient2848);fill-opacity:1;fill-rule:nonzero;stroke:url(#linearGradient2850);stroke-width:0.99992192;stroke-linecap:butt;stroke-linejoin:round;stroke-miterlimit:4;stroke-opacity:1;stroke-dasharray:none;stroke-dashoffset:0;marker:none;visibility:visible;display:inline;overflow:visible;enable-background:accumulate" />
  <path
     d="M 8.0003823,1.5000002 C 7.1066894,1.5201698 6.1509528,1.5805131 5.3918561,2.0802072 4.6137025,2.9443067 4.7463693,4.1511436 4.599359,5.2058764 4.4398991,7.7586836 4.4392557,10.337613 4.8461825,12.870066 c 0.1192,0.603817 0.5151102,1.217197 1.1841336,1.360013 1.1823966,0.348905 2.4711403,0.342481 3.6719632,0.07878 C 10.27522,14.182857 10.830028,13.854714 11.0148,13.294601 11.29678,12.53397 11.301374,11.711991 11.393171,10.917876 11.557873,8.4650496 11.553931,5.9905663 11.225987,3.550057 11.139163,2.888187 10.906467,2.125986 10.194323,1.8488565 9.5131854,1.5555102 8.7356962,1.5278131 8.0003823,1.5000002 z"
     id="rect1320-6-9-3"
     style="fill:none;stroke:url(#linearGradient2845);stroke-width:0.99999976;stroke-linecap:round;stroke-linejoin:round;stroke-miterlimit:4;stroke-opacity:1;stroke-dasharray:none;stroke-dashoffset:0;marker:none;visibility:visible;display:inline;overflow:visible" />
  <path
     d="M 7.9285015,1.5216845 C 6.910403,1.5447645 5.8265924,1.6173845 4.9618269,2.1891285 4.0753521,3.1778233 4.2274319,4.5579073 4.0599575,5.7647223 3.9299587,7.8549963 3.888923,9.9554033 4.0480914,12.045848 L 11.642779,4.1557053 c -0.01191,-0.09541 -0.02284,-0.190731 -0.0356,-0.286048 -0.09891,-0.757305 -0.363525,-1.6375681 -1.1748,-1.9546575 C 9.6564243,1.5793555 8.7661753,1.5535084 7.9285043,1.5216845 z"
     id="rect3238"
     style="opacity:0.4;fill:url(#linearGradient2841);fill-opacity:1;fill-rule:nonzero;stroke:none;stroke-width:0.99992186;marker:none;visibility:visible;display:inline;overflow:visible;enable-background:accumulate" />
</svg>

<svg xmlns="http://www.w3.org/2000/svg" xmlns:xlink="http://www.w3.org/1999/xlink" viewBox="0 0 16 16"><defs><linearGradient id="a"><stop offset="0" stop-color="#fff"/><stop offset="1" stop-color="#fff" stop-opacity="0"/></linearGradient><linearGradient id="b"><stop offset="0" stop-color="#fff"/><stop offset="1" stop-color="#fff" stop-opacity="0"/></linearGradient><linearGradient id="c"><stop offset="0" stop-color="#f4f4f4"/><stop offset="1" stop-color="#dbdbdb"/></linearGradient><linearGradient id="d"><stop offset="0" stop-color="#aaa"/><stop offset="1" stop-color="#c8c8c8"/></linearGradient><linearGradient x1="14" y1="2" x2="32" y2="40" id="h" xlink:href="#a" gradientUnits="userSpaceOnUse" gradientTransform="matrix(.81494 0 0 .38738 -10.008 -1.552)"/><linearGradient x1="24.118" y1="33.658" x2="-32.012" y2="33.658" id="g" xlink:href="#b" gradientUnits="userSpaceOnUse" gradientTransform="matrix(0 -.23726 .25777 0 -.676 7.064)"/><linearGradient x1="18.601" y1=".854" x2="18.601" y2="49.956" id="e" xlink:href="#c" gradientUnits="userSpaceOnUse" gradientTransform="matrix(.3927 0 0 .31287 5.392 .05)"/><linearGradient x1="-74.785" y1="54.703" x2="-74.785" y2="2.104" id="f" xlink:href="#d" gradientUnits="userSpaceOnUse" gradientTransform="matrix(.317 0 0 .2928 28.722 -.3)"/></defs><path d="M7.984.5c-1.15.02-2.392.11-3.338.754-.983 1-.868 2.394-1.018 3.627-.215 2.9-.193 5.83.328 8.7.18.738.797 1.47 1.635 1.61 1.64.43 3.46.44 5.07-.07a2.12 2.12 0 0 0 1.4-1.6c.25-1 .28-2.025.376-3.04.138-2.645.11-5.32-.356-7.94A2.223 2.223 0 0 0 10.49.83C9.69.56 8.83.53 7.99.5z" color="#000" fill="url(#e)" stroke="url(#f)" stroke-linejoin="round" overflow="visible"/><path d="M8 1.5c-.893.02-1.85.08-2.608.58-.778.864-.646 2.07-.793 3.126-.16 2.553-.16 5.132.24 7.664.12.604.512 1.217 1.18 1.36 1.183.35 2.47.343 3.67.08.575-.127 1.13-.455 1.315-1.015.282-.76.286-1.583.38-2.377.163-2.453.16-4.927-.17-7.368-.086-.662-.32-1.424-1.03-1.7-.68-.294-1.458-.322-2.194-.35z" fill="none" stroke="url(#g)" stroke-linecap="round" stroke-linejoin="round" overflow="visible"/><path d="M7.93 1.522c-1.02.023-2.103.095-2.968.667-.887.98-.735 2.36-.902 3.57-.13 2.09-.17 4.19-.012 6.28l7.595-7.89-.036-.29c-.1-.76-.363-1.64-1.175-1.955-.776-.336-1.666-.36-2.503-.393z" opacity=".4" fill="url(#h)" overflow="visible"/></svg>
